svg/azure-functions.svg

<svg viewBox="0 0 20 20" xmlns="http://www.w3.org/2000/svg">
<rect width="100%" height="100%" fill="#FDBC0F"/>
<path d="M6.91506 18.125L14.2508 7.60869H10.6865L14.1386 2.25H8.96044L6.17285 10.2137L9.5732 10.24L6.91506 18.125Z" fill="white"/>
<path d="M1.60702 10.2923C1.45167 10.135 1.47757 9.83775 1.60702 9.67166L2.4269 8.84119L6.09478 5.2396C6.25013 5.08224 6.49178 5.08224 6.68164 5.2396C6.83699 5.39695 6.8974 5.69417 6.68164 5.86026L2.9102 9.6804C2.75485 9.83775 2.75485 10.135 2.9102 10.3011L6.75932 14.2523C6.91466 14.4097 6.91466 14.7069 6.75932 14.873C6.60397 15.0303 6.31054 15.0041 6.17246 14.873L2.45279 11.2714L2.4269 11.2452L1.60702 10.2923Z" fill="white"/>
<path d="M18.3928 10.2923C18.5482 10.135 18.5223 9.83775 18.3928 9.67166L17.573 8.84119L13.9051 5.2396C13.7497 5.08224 13.5081 5.08224 13.3182 5.2396C13.1629 5.39695 13.1024 5.69417 13.3182 5.86026L17.1673 9.6804C17.3227 9.83775 17.3227 10.135 17.1673 10.3011L13.2405 14.2523C13.0852 14.4097 13.0852 14.7069 13.2405 14.873C13.3959 15.0303 13.6893 15.0041 13.8274 14.873L17.4694 11.2189L17.4953 11.1927L18.3928 10.2923Z" fill="white"/>
</svg>

<svg xmlns="http://www.w3.org/2000/svg" viewBox="0 0 20 20">
  <rect width="100%" height="100%" fill="#FDBC0F"/>
  <path fill="#fff" d="m7 18.1 7.3-10.5h-3.6L14 2.3H9l-2.8 8h3.4L6.9 18Z"/>
  <path fill="#fff" d="M1.6 10.3v-.6l.8-.9 3.7-3.6h.6c.1.2.2.5 0 .7L2.9 9.7v.6l3.9 4v.6h-.6l-3.7-3.6-.9-1ZM18.4 10.3v-.6l-.8-.9-3.7-3.6h-.6c-.1.2-.2.5 0 .7l3.9 3.8v.6l-4 4v.6h.6l3.7-3.7.9-1Z"/>
</svg>
